public/images/Footer/linkedin.svg

<svg width="22" height="22" viewBox="0 0 22 22" fill="none" xmlns="http://www.w3.org/2000/svg">
<path d="M16.4695 0H5.51309C2.4774 0 0 2.4774 0 5.51309V16.4869C0 19.5052 2.4774 21.9826 5.51309 21.9826H16.4869C19.5226 21.9826 22 19.5052 22 16.4695V5.51309C21.9826 2.4774 19.5052 0 16.4695 0ZM7.32752 17.7954H4.18715V8.72324H7.32752V17.7954ZM5.73989 7.32752C4.85012 7.32752 4.13481 6.61221 4.13481 5.72244C4.13481 4.83267 4.85012 4.11737 5.73989 4.11737C6.62966 4.11737 7.34496 4.83267 7.34496 5.72244C7.32752 6.61221 6.61221 7.32752 5.73989 7.32752ZM17.8128 17.7954H17.7954H15.1784V13.3989C15.1784 12.3347 15.0389 10.9738 13.5908 10.9738C12.1079 10.9738 11.8636 12.1253 11.8636 13.3291V17.7954H9.24663V8.72324H11.6891V9.94449H11.7589C12.1427 9.24663 13.0325 8.70579 14.4282 8.70579C17.3069 8.70579 17.8128 10.3632 17.8128 12.8232V17.7954Z" fill="white"/>
</svg>

<svg xmlns="http://www.w3.org/2000/svg" width="22" height="22" fill="none" xmlns:v="https://vecta.io/nano"><path d="M16.47 0H5.513C2.477 0 0 2.477 0 5.513v10.974c0 3.018 2.477 5.496 5.513 5.496h10.974c3.036 0 5.513-2.477 5.513-5.513V5.513C21.983 2.477 19.505 0 16.47 0zM7.328 17.795h-3.14V8.723h3.14v9.072zM5.74 7.328a1.6 1.6 0 0 1-1.605-1.605A1.6 1.6 0 0 1 5.74 4.117a1.6 1.6 0 0 1 1.605 1.605c-.017.89-.733 1.605-1.605 1.605zm12.073 10.468h-.017-2.617v-4.397c0-1.064-.139-2.425-1.588-2.425-1.483 0-1.727 1.151-1.727 2.355v4.466H9.247V8.723h2.442v1.221h.07c.384-.698 1.274-1.239 2.669-1.239 2.879 0 3.385 1.657 3.385 4.117v4.972z" fill="#fff"/></svg>
